X:109
T: DROBEN AN BERGESHOEHN
N: E0705A
O: Europa, Mitteleuropa, Deutschland, Hessen, Wetterau, Muschenheim
R: Liebes - Lied, Leid, Klage
M: 3/4
L: 1/16
K: F
c2A2B2 | c3dc2c2B2A2 | G3AG2
A2B2G2 | e3ee2d2c2B2 | A4z2
c2A2B2 | c3dc2c2B2A2 | G3AG2
A2B2G2 | e3ee2d2c2B2 | A4z2
c2A2B2 | c3dc2c2B2A2 | G3AG2
A2B2G2 | e3ee2d2c2B2 | A4z2

